src/icons/hicolor/scalable/apps/yast-audit-laf.svg

<?xml version="1.0" encoding="UTF-8"?>
<svg version="1.0" viewBox="0 0 128 128" xmlns="http://www.w3.org/2000/svg">
<rect x="76" y="4" width="36" height="36" fill="#f6f5f4"/>
<path d="m16 4v116h96v-80l-36-36z" fill="#fff"/>
<path d="m16 4v36h96l-36-36h-60z" fill="#deddda"/>
<path d="m112 40-36-36v38z" opacity=".2"/>
<rect x="76" y="16" width="20" height="8" fill="#77767b"/>
<path d="m112 40-36-36v36z" fill="#fff"/>
<rect x="20" y="44" width="12" height="4" fill="#c0bfbc"/>
<rect x="36" y="44" width="22" height="4" fill="#deddda"/>
<rect x="62" y="44" width="16" height="4" fill="#c0bfbc"/>
<rect x="82" y="44" width="26" height="4" fill="#deddda"/>
<rect x="20" y="52" width="8" height="4" fill="#c0bfbc"/>
<rect x="32" y="52" width="14" height="4" fill="#deddda"/>
<rect x="50" y="52" width="16" height="4" fill="#c0bfbc"/>
<rect x="70" y="52" width="16" height="4" fill="#deddda"/>
<rect x="90" y="52" width="18" height="4" fill="#deddda"/>
<rect x="20" y="60" width="16" height="4" fill="#c0bfbc"/>
<rect x="20" y="68" width="88" height="12" fill="#deddda"/>
<rect x="20" y="84" width="12" height="4" fill="#c0bfbc"/>
<rect x="20" y="92" width="88" height="12" fill="#deddda"/>
<rect x="56" y="16" width="20" height="8" fill="#77767b"/>
<rect x="56" y="28" width="20" height="4" fill="#c0bfbc"/>
<rect x="20" y="8" width="4" height="2" fill="#9a9996"/>
<path d="m34 8a14 14 0 0 0 -14 14 14 14 0 0 0 14 14 14 14 0 0 0 14 -14 14 14 0 0 0 -14 -14zm0 8a6 6 0 0 1 6 6 6 6 0 0 1 -6 6 6 6 0 0 1 -6 -6 6 6 0 0 1 6 -6z" fill="#3584e4"/>
<rect x="28" y="8" width="4" height="2" fill="#9a9996"/>
<rect x="16" y="120" width="96" height="4" fill="#f6f5f4"/>
</svg>

<?xml version="1.0" encoding="UTF-8" standalone="no"?>
<svg
   xmlns:dc="http://purl.org/dc/elements/1.1/"
   xmlns:cc="http://creativecommons.org/ns#"
   xmlns:rdf="http://www.w3.org/1999/02/22-rdf-syntax-ns#"
   xmlns:svg="http://www.w3.org/2000/svg"
   xmlns="http://www.w3.org/2000/svg"
   width="128"
   height="128"
   id="svg11300"
   version="1.0"
   style="display:inline;enable-background:new"
   viewBox="0 0 128 128">
  <title
     id="title4162">Adwaita Icon Template</title>
  <defs
     id="defs3" />
  <metadata
     id="metadata4">
    <rdf:RDF>
      <cc:Work
         rdf:about="">
        <dc:format>image/svg+xml</dc:format>
        <dc:type
           rdf:resource="http://purl.org/dc/dcmitype/StillImage" />
        <dc:creator>
          <cc:Agent>
            <dc:title>GNOME Design Team</dc:title>
          </cc:Agent>
        </dc:creator>
        <dc:source />
        <cc:license
           rdf:resource="http://creativecommons.org/licenses/by-sa/4.0/" />
        <dc:title>Adwaita Icon Template</dc:title>
        <dc:subject>
          <rdf:Bag />
        </dc:subject>
        <dc:date />
        <dc:rights>
          <cc:Agent>
            <dc:title />
          </cc:Agent>
        </dc:rights>
        <dc:publisher>
          <cc:Agent>
            <dc:title />
          </cc:Agent>
        </dc:publisher>
        <dc:identifier />
        <dc:relation />
        <dc:language />
        <dc:coverage />
        <dc:description />
        <dc:contributor>
          <cc:Agent>
            <dc:title />
          </cc:Agent>
        </dc:contributor>
      </cc:Work>
      <cc:License
         rdf:about="http://creativecommons.org/licenses/by-sa/4.0/">
        <cc:permits
           rdf:resource="http://creativecommons.org/ns#Reproduction" />
        <cc:permits
           rdf:resource="http://creativecommons.org/ns#Distribution" />
        <cc:requires
           rdf:resource="http://creativecommons.org/ns#Notice" />
        <cc:requires
           rdf:resource="http://creativecommons.org/ns#Attribution" />
        <cc:permits
           rdf:resource="http://creativecommons.org/ns#DerivativeWorks" />
        <cc:requires
           rdf:resource="http://creativecommons.org/ns#ShareAlike" />
      </cc:License>
    </rdf:RDF>
  </metadata>
  <rect
     y="4"
     x="76"
     height="36"
     width="36"
     id="rect1138"
     style="opacity:1;fill:#f6f5f4;fill-opacity:1;stroke:none;stroke-width:1;stroke-linecap:butt;stroke-linejoin:round;stroke-miterlimit:4;stroke-dasharray:none;stroke-opacity:1" />
  <path
     id="rect845"
     d="m 16,4 v 116 h 96 V 40 L 76,4 Z"
     style="opacity:1;fill:#ffffff;fill-opacity:1;stroke:none;stroke-width:1;stroke-linecap:butt;stroke-linejoin:round;stroke-miterlimit:4;stroke-dasharray:none;stroke-opacity:1" />
  <path
     id="rect862"
     d="M 16 4 L 16 40 L 112 40 L 76 4 L 16 4 z "
     style="opacity:1;fill:#deddda;fill-opacity:1;stroke:none;stroke-width:1;stroke-linecap:butt;stroke-linejoin:round;stroke-miterlimit:4;stroke-dasharray:none;stroke-opacity:1" />
  <path
     id="rect845-6-7-5"
     d="M 112,40 76,4 v 0 2 36 z"
     style="display:inline;opacity:0.2;fill:#000000;fill-opacity:1;stroke:none;stroke-width:1;stroke-linecap:butt;stroke-linejoin:round;stroke-miterlimit:4;stroke-dasharray:none;stroke-opacity:1;enable-background:new" />
  <rect
     y="16"
     x="76"
     height="8"
     width="20"
     id="rect1052-2"
     style="display:inline;opacity:1;fill:#77767b;fill-opacity:1;stroke:none;stroke-width:1;stroke-linecap:butt;stroke-linejoin:round;stroke-miterlimit:4;stroke-dasharray:none;stroke-opacity:1;enable-background:new" />
  <path
     id="rect845-6-7"
     d="M 112,40 76,4 v 36 z"
     style="display:inline;opacity:1;fill:#ffffff;fill-opacity:1;stroke:none;stroke-width:1;stroke-linecap:butt;stroke-linejoin:round;stroke-miterlimit:4;stroke-dasharray:none;stroke-opacity:1;enable-background:new" />
  <rect
     y="44"
     x="20"
     height="4"
     width="12"
     id="rect946"
     style="opacity:1;fill:#c0bfbc;fill-opacity:1;stroke:none;stroke-width:1;stroke-linecap:butt;stroke-linejoin:round;stroke-miterlimit:4;stroke-dasharray:none;stroke-opacity:1" />
  <rect
     y="44"
     x="36"
     height="4"
     width="22"
     id="rect948"
     style="opacity:1;fill:#deddda;fill-opacity:1;stroke:none;stroke-width:1;stroke-linecap:butt;stroke-linejoin:round;stroke-miterlimit:4;stroke-dasharray:none;stroke-opacity:1" />
  <rect
     y="44"
     x="62"
     height="4"
     width="16"
     id="rect946-3"
     style="display:inline;opacity:1;fill:#c0bfbc;fill-opacity:1;stroke:none;stroke-width:1;stroke-linecap:butt;stroke-linejoin:round;stroke-miterlimit:4;stroke-dasharray:none;stroke-opacity:1;enable-background:new" />
  <rect
     y="44"
     x="82"
     height="4"
     width="26"
     id="rect948-5"
     style="display:inline;opacity:1;fill:#deddda;fill-opacity:1;stroke:none;stroke-width:1;stroke-linecap:butt;stroke-linejoin:round;stroke-miterlimit:4;stroke-dasharray:none;stroke-opacity:1;enable-background:new" />
  <rect
     y="52"
     x="20"
     height="4"
     width="8"
     id="rect946-6"
     style="display:inline;opacity:1;fill:#c0bfbc;fill-opacity:1;stroke:none;stroke-width:1;stroke-linecap:butt;stroke-linejoin:round;stroke-miterlimit:4;stroke-dasharray:none;stroke-opacity:1;enable-background:new" />
  <rect
     y="52"
     x="32"
     height="4"
     width="14"
     id="rect948-2"
     style="display:inline;opacity:1;fill:#deddda;fill-opacity:1;stroke:none;stroke-width:1;stroke-linecap:butt;stroke-linejoin:round;stroke-miterlimit:4;stroke-dasharray:none;stroke-opacity:1;enable-background:new" />
  <rect
     y="52"
     x="50"
     height="4"
     width="16"
     id="rect946-3-9"
     style="display:inline;opacity:1;fill:#c0bfbc;fill-opacity:1;stroke:none;stroke-width:1;stroke-linecap:butt;stroke-linejoin:round;stroke-miterlimit:4;stroke-dasharray:none;stroke-opacity:1;enable-background:new" />
  <rect
     y="52"
     x="70"
     height="4"
     width="16"
     id="rect948-5-1"
     style="display:inline;opacity:1;fill:#deddda;fill-opacity:1;stroke:none;stroke-width:1;stroke-linecap:butt;stroke-linejoin:round;stroke-miterlimit:4;stroke-dasharray:none;stroke-opacity:1;enable-background:new" />
  <rect
     y="52"
     x="90"
     height="4"
     width="18"
     id="rect948-5-1-2"
     style="display:inline;opacity:1;fill:#deddda;fill-opacity:1;stroke:none;stroke-width:1;stroke-linecap:butt;stroke-linejoin:round;stroke-miterlimit:4;stroke-dasharray:none;stroke-opacity:1;enable-background:new" />
  <rect
     y="60"
     x="20"
     height="4"
     width="16"
     id="rect946-6-7"
     style="display:inline;opacity:1;fill:#c0bfbc;fill-opacity:1;stroke:none;stroke-width:1;stroke-linecap:butt;stroke-linejoin:round;stroke-miterlimit:4;stroke-dasharray:none;stroke-opacity:1;enable-background:new" />
  <rect
     y="68"
     x="20"
     height="12"
     width="88"
     id="rect948-5-1-2-6"
     style="display:inline;opacity:1;fill:#deddda;fill-opacity:1;stroke:none;stroke-width:1;stroke-linecap:butt;stroke-linejoin:round;stroke-miterlimit:4;stroke-dasharray:none;stroke-opacity:1;enable-background:new" />
  <rect
     y="84"
     x="20"
     height="4"
     width="12"
     id="rect946-6-7-0"
     style="display:inline;opacity:1;fill:#c0bfbc;fill-opacity:1;stroke:none;stroke-width:1;stroke-linecap:butt;stroke-linejoin:round;stroke-miterlimit:4;stroke-dasharray:none;stroke-opacity:1;enable-background:new" />
  <rect
     y="92"
     x="20"
     height="12"
     width="88"
     id="rect948-5-1-2-6-6"
     style="display:inline;opacity:1;fill:#deddda;fill-opacity:1;stroke:none;stroke-width:1;stroke-linecap:butt;stroke-linejoin:round;stroke-miterlimit:4;stroke-dasharray:none;stroke-opacity:1;enable-background:new" />
  <rect
     y="16"
     x="56"
     height="8"
     width="20"
     id="rect1052"
     style="opacity:1;fill:#77767b;fill-opacity:1;stroke:none;stroke-width:1;stroke-linecap:butt;stroke-linejoin:round;stroke-miterlimit:4;stroke-dasharray:none;stroke-opacity:1" />
  <rect
     y="28"
     x="56"
     height="4"
     width="20"
     id="rect1054"
     style="opacity:1;fill:#c0bfbc;fill-opacity:1;stroke:none;stroke-width:1;stroke-linecap:butt;stroke-linejoin:round;stroke-miterlimit:4;stroke-dasharray:none;stroke-opacity:1" />
  <rect
     y="8"
     x="20"
     height="2"
     width="4"
     id="rect1094"
     style="opacity:1;fill:#9a9996;fill-opacity:1;stroke:none;stroke-width:1;stroke-linecap:butt;stroke-linejoin:round;stroke-miterlimit:4;stroke-dasharray:none;stroke-opacity:1" />
  <path
     id="path1231"
     d="M 34 8 A 14 14 0 0 0 20 22 A 14 14 0 0 0 34 36 A 14 14 0 0 0 48 22 A 14 14 0 0 0 34 8 z M 34 16 A 6 6 0 0 1 40 22 A 6 6 0 0 1 34 28 A 6 6 0 0 1 28 22 A 6 6 0 0 1 34 16 z "
     style="opacity:1;fill:#3584e4;fill-opacity:1;stroke:none;stroke-width:1;stroke-linecap:butt;stroke-linejoin:round;stroke-miterlimit:4;stroke-dasharray:none;stroke-opacity:1" />
  <rect
     y="8"
     x="28"
     height="2"
     width="4"
     id="rect1096"
     style="opacity:1;fill:#9a9996;fill-opacity:1;stroke:none;stroke-width:1;stroke-linecap:butt;stroke-linejoin:round;stroke-miterlimit:4;stroke-dasharray:none;stroke-opacity:1" />
  <rect
     y="120"
     x="16"
     height="4"
     width="96"
     id="rect1098"
     style="opacity:1;fill:#f6f5f4;fill-opacity:1;stroke:none;stroke-width:1;stroke-linecap:butt;stroke-linejoin:round;stroke-miterlimit:4;stroke-dasharray:none;stroke-opacity:1" />
</svg>
